X: 9853
T: Derek Pelley's
R: reel
M: 4/4
K: Eminor
|:EFGF EFGE|B2B2 GEE2|cBAG FGAB|c2ce B3B|
cedc B~E3|cBAG F2AB|c2e2- ee2e|dcBA G~E3:|
|:B4 G3F|E2e2 e2c2|A4 F3G|AGFG ABGF|
E2e2 e2c2|A4 F3G|AGFG AFB2|AGFG E4:|

